packages/kaspersky-hexa-ui-icons/src/iconsSVGs/16/Shredder.svg

<svg width="16" height="16" viewBox="0 0 16 16" fill="none" xmlns="http://www.w3.org/2000/svg">
<path fill-rule="evenodd" clip-rule="evenodd" d="M4.01675 2.6001C4.01675 1.90974 4.5764 1.3501 5.26675 1.3501H10.7334C11.4238 1.3501 11.9834 1.90974 11.9834 2.6001V4.68344H13.4001C14.0905 4.68344 14.6501 5.24309 14.6501 5.93344V10.7334C14.6501 11.4238 14.0905 11.9834 13.4001 11.9834H12.6501V14.0001C12.6501 14.3591 12.3591 14.6501 12.0001 14.6501C11.6411 14.6501 11.3501 14.3591 11.3501 14.0001V9.98344H9.98342V14.0001C9.98342 14.3591 9.69241 14.6501 9.33342 14.6501C8.97444 14.6501 8.68342 14.3591 8.68342 14.0001V9.98344H7.31675V14.0001C7.31675 14.3591 7.02574 14.6501 6.66675 14.6501C6.30777 14.6501 6.01675 14.3591 6.01675 14.0001V9.98344H4.6501V14.0001C4.6501 14.3591 4.35908 14.6501 4.0001 14.6501C3.64111 14.6501 3.3501 14.3591 3.3501 14.0001V11.9834H2.6001C1.90974 11.9834 1.3501 11.4238 1.3501 10.7334V5.93344C1.3501 5.24308 1.90974 4.68344 2.6001 4.68344H4.01675V2.6001ZM3.3501 10.6834V9.73344C3.3501 9.15354 3.8202 8.68344 4.4001 8.68344H11.6001C12.18 8.68344 12.6501 9.15354 12.6501 9.73344V10.6834H13.3501V5.98344H2.6501V10.6834H3.3501ZM10.6834 2.6501V4.68344H5.31675V2.6501H10.6834Z" fill="black"/>
</svg>

<svg xmlns="http://www.w3.org/2000/svg" width="16" height="16" fill="none" viewBox="0 0 16 16"><path fill="#000" fill-rule="evenodd" d="M4.0166 2.6c0-.6904.5597-1.25 1.25-1.25h5.4667c.6904 0 1.25.5596 1.25 1.25v2.0833H13.4c.6903 0 1.25.5597 1.25 1.25v4.8c0 .6904-.5597 1.25-1.25 1.25h-.75V14a.65.65 0 1 1-1.3 0V9.9833H9.9833V14a.65.65 0 1 1-1.3 0V9.9833H7.3166V14a.65.65 0 1 1-1.3 0V9.9833H4.65V14a.65.65 0 1 1-1.3 0v-2.0167H2.6c-.6904 0-1.25-.5596-1.25-1.25v-4.8c0-.6903.5596-1.25 1.25-1.25h1.4166zM3.35 10.6833v-.95c0-.5799.47-1.05 1.05-1.05h7.2c.5799 0 1.05.4701 1.05 1.05v.95h.7v-4.7H2.65v4.7zM10.6833 2.65v2.0333H5.3166V2.65z"/></svg>
